tools/download-figma-icons/icons/outlined-medium/shopping-basket.svg

<svg width="24" height="24" viewBox="0 0 24 24" fill="none" xmlns="http://www.w3.org/2000/svg">
<path d="M24 11.0699C24 9.53525 22.7723 8.29258 21.2601 8.29258H17.9064L15.0917 4.54211C14.3581 3.56145 13.2277 3 12.0075 3C10.7873 3 9.65689 3.56145 8.92327 4.54211L6.10855 8.29258H2.73986C1.23518 8.28509 0 9.53525 0 11.0699C0 12.4173 0.950718 13.5402 2.20087 13.7948L4.04991 19.9482C4.34935 20.9439 5.24766 21.6026 6.28072 21.6026H17.7193C18.7598 21.6026 19.6507 20.9364 19.9501 19.9482L21.7991 13.7948C23.0493 13.5328 23.9925 12.4099 23.9925 11.0699H24ZM10.1135 5.43294C10.5627 4.83406 11.2514 4.48971 12.0075 4.48971C12.7636 4.48971 13.4448 4.83406 13.9014 5.43294L16.0424 8.28509H7.98752L10.1285 5.43294H10.1135ZM18.5203 19.5065C18.4155 19.8584 18.0936 20.0979 17.7193 20.0979H6.28072C5.90643 20.0979 5.59202 19.8584 5.47973 19.5065L3.77293 13.8397H20.2196L18.5128 19.5065H18.5203ZM21.2527 12.3425H2.73986C2.05115 12.3425 1.49719 11.7661 1.49719 11.0624C1.49719 10.3587 2.05864 9.78228 2.73986 9.78228H21.2527C21.9414 9.78228 22.4953 10.3587 22.4953 11.0624C22.4953 11.7661 21.9339 12.3425 21.2527 12.3425Z" fill="black"/>
</svg>

<svg xmlns="http://www.w3.org/2000/svg" width="24" height="24" fill="none" viewBox="0 0 24 24"><path fill="currentColor" d="M24 11.07c0-1.535-1.228-2.777-2.74-2.777h-3.354l-2.814-3.75A3.83 3.83 0 0 0 12.007 3c-1.22 0-2.35.561-3.084 1.542L6.11 8.292H2.74C1.236 8.286 0 9.536 0 11.07c0 1.347.95 2.47 2.2 2.725l1.85 6.153a2.31 2.31 0 0 0 2.23 1.655h11.44c1.04 0 1.93-.667 2.23-1.655l1.85-6.153a2.78 2.78 0 0 0 2.192-2.725zM10.114 5.433a2.34 2.34 0 0 1 1.893-.943c.757 0 1.438.344 1.894.943l2.141 2.852H7.988l2.14-2.852zm8.406 14.074a.83.83 0 0 1-.8.59H6.28a.835.835 0 0 1-.8-.59L3.773 13.84H20.22l-1.707 5.666zm2.733-7.165H2.74c-.689 0-1.243-.576-1.243-1.28 0-.703.562-1.28 1.243-1.28h18.513c.688 0 1.242.577 1.242 1.28s-.561 1.28-1.242 1.28"/></svg>
